Newaita-dark/apps/48/keep.svg

<svg height="48pt" viewBox="0 0 48 48" width="48pt" xmlns="http://www.w3.org/2000/svg" xmlns:xlink="http://www.w3.org/1999/xlink"><linearGradient id="a" gradientUnits="userSpaceOnUse" x1="23.81478" x2="23.81478" y1="42.0509045" y2="44.03547050005"><stop offset="0" stop-opacity=".27451"/><stop offset="1" stop-opacity="0"/></linearGradient><linearGradient id="b"><stop offset="0" stop-opacity=".313725"/><stop offset=".222222" stop-opacity=".27451"/><stop offset="1" stop-opacity="0"/></linearGradient><radialGradient id="c" cx="450.908936" cy="189.579361" gradientTransform="matrix(.00000026 -.117199 -.210958 -.00000015 75.219128 95.392999)" gradientUnits="userSpaceOnUse" r="21.166656" xlink:href="#b"/><radialGradient id="d" cx="450.908936" cy="189.579361" gradientTransform="matrix(-.00000026 .117199 .210958 .00000015 -27.589573 -11.29122)" gradientUnits="userSpaceOnUse" r="21.166656" xlink:href="#b"/><radialGradient id="e" cx="450.908936" cy="189.579361" gradientTransform="matrix(-.00000026 -.117199 .210958 -.00000015 -27.589573 95.392999)" gradientUnits="userSpaceOnUse" r="21.166656" xlink:href="#b"/><radialGradient id="f" cx="450.908936" cy="189.579361" gradientTransform="matrix(.00000026 .117199 -.210958 .00000015 75.219126 -11.291219)" gradientUnits="userSpaceOnUse" r="21.166656" xlink:href="#b"/><linearGradient id="g" gradientUnits="userSpaceOnUse" x1="960" x2="960" y1="495.118103" y2="175.118134"><stop offset="0" stop-color="#ffcc80"/><stop offset="1" stop-color="#ffe0b2"/></linearGradient><linearGradient id="h" gradientUnits="userSpaceOnUse" x1="960" x2="960" y1="1455.118164" y2="615.118103"><stop offset="0" stop-color="#e0e0e0"/><stop offset="1" stop-color="#eee"/></linearGradient><path d="m11.90625 42.050781h23.816406v1.984375h-23.816406zm0 0" fill="url(#a)"/><path d="m35.722656 42.050781h3.96875v-1.984375h-3.96875zm0 0" fill="url(#c)"/><path d="m11.90625 42.050781h-3.96875v1.984375h3.96875zm0 0" fill="url(#d)"/><path d="m11.90625 42.050781h-3.96875v-1.984375h3.96875zm0 0" fill="url(#e)"/><path d="m35.722656 42.050781h3.96875v1.984375h-3.96875zm0 0" fill="url(#f)"/><path d="m9.921875 4.34375h27.785156c1.097657 0 1.984375.890625 1.984375 1.984375v33.738281c0 1.097656-.886718 1.984375-1.984375 1.984375h-27.785156c-1.09375 0-1.984375-.886719-1.984375-1.984375v-33.738281c0-1.09375.890625-1.984375 1.984375-1.984375zm0 0" fill="#ffab40"/><path d="m399.961827 175.101398c-44.247746 0-79.992366 35.74462-79.992366 79.992365v239.977096h1280.035311v-239.977096c0-44.247745-35.74462-79.992365-79.992366-79.992365zm0 0" fill="url(#g)" stroke="#212121" stroke-linecap="round" stroke-linejoin="round" stroke-width="11.338583" transform="scale(.0248071)"/><path d="m9.921875 41.9375c-1.097656 0-1.984375-.882812-1.984375-1.984375v-.246094c0 1.097657.886719 1.984375 1.984375 1.984375h27.785156c1.097657 0 1.984375-.886718 1.984375-1.984375v.246094c0 1.101563-.886718 1.984375-1.984375 1.984375zm0 0" fill-opacity=".196078"/><path d="m9.921875 4.457031c-1.097656 0-1.984375.882813-1.984375 1.984375v.246094c0-1.097656.886719-1.984375 1.984375-1.984375h27.785156c1.097657 0 1.984375.886719 1.984375 1.984375v-.246094c0-1.101562-.886718-1.984375-1.984375-1.984375zm0 0" fill="#fff" fill-opacity=".392157"/><path d="m9.921875 4.203125c-1.175781 0-2.125.949219-2.125 2.125v33.738281c0 1.175782.949219 2.125 2.125 2.125h27.785156c1.175781 0 2.125-.949218 2.125-2.125v-33.738281c0-1.175781-.949219-2.125-2.125-2.125zm0 .28125h27.785156c1.023438 0 1.84375.820313 1.84375 1.84375v33.738281c0 1.023438-.820312 1.84375-1.84375 1.84375h-27.785156c-1.023437 0-1.84375-.820312-1.84375-1.84375v-33.738281c0-1.023437.820313-1.84375 1.84375-1.84375zm0 0" fill="#212121"/><path d="m960.065849 615.059407c-155.260772 0-280.130744 124.869972-280.130744 280.130744 0 112.115284 65.348094 208.326574 160.142196 253.20418v26.769099c-11.180035 0-20.155557 8.503125-20.155557 19.053299v1.732119c0 10.707639 8.975522 19.210764 20.155557 19.210764v59.994274c-11.180035 0-20.155557 8.503126-20.155557 19.0533v1.889584c0 10.550174 8.975522 19.053299 20.155557 19.053299v59.994274c0 22.202605 17.793577 39.996183 39.996183 39.996183h19.998091v19.998091c0 11.02257 17.793577 19.998091 39.996183 19.998091h39.996182c22.04514 0 39.996183-8.975521 39.996183-19.998091v-19.998091h19.998091c22.04514 0 39.996183-17.793578 39.996183-39.996183v-19.998091c11.02257 0 19.998091-8.503126 19.998091-19.0533v-1.889583c0-10.550174-8.975521-19.0533-19.998091-19.0533v-59.994274c11.02257 0 19.998091-8.503125 19.998091-19.210765v-1.732118c0-10.550174-8.975521-19.0533-19.998091-19.0533v-66.765281c94.636637-44.877606 159.984731-141.088896 159.984731-253.20418 0-155.260772-124.869972-280.130744-279.973279-280.130744zm0 119.988548c88.495491 0 159.984731 71.48924 159.984731 160.142196 0 88.495491-71.48924 159.984731-159.984731 159.984731-88.652956 0-160.142196-71.48924-160.142196-159.984731 0-88.652956 71.48924-160.142196 160.142196-160.142196zm0 0" fill="url(#h)" stroke="#212121" stroke-linecap="round" stroke-width="11.338583" transform="scale(.0248071)"/></svg>

<?xml version="1.0" encoding="UTF-8"?>
<svg xmlns="http://www.w3.org/2000/svg" xmlns:xlink="http://www.w3.org/1999/xlink" width="48pt" height="48pt" viewBox="0 0 48 48" version="1.1">
<defs>
<linearGradient id="linear0" gradientUnits="userSpaceOnUse" x1="254" y1="233.5" x2="254" y2="254.666672" gradientTransform="matrix(0.093759,0,0,0.093759,-0.00000572259,20.158178)">
<stop offset="0" style="stop-color:rgb(0%,0%,0%);stop-opacity:0.27451;"/>
<stop offset="1" style="stop-color:rgb(0%,0%,0%);stop-opacity:0;"/>
</linearGradient>
<radialGradient id="radial0" gradientUnits="userSpaceOnUse" cx="450.908936" cy="189.579361" fx="450.908936" fy="189.579361" r="21.166656" gradientTransform="matrix(0.000000261256,-0.117199,-0.210958,-0.000000152308,75.219128,95.392999)">
<stop offset="0" style="stop-color:rgb(0%,0%,0%);stop-opacity:0.313725;"/>
<stop offset="0.222222" style="stop-color:rgb(0%,0%,0%);stop-opacity:0.27451;"/>
<stop offset="1" style="stop-color:rgb(0%,0%,0%);stop-opacity:0;"/>
</radialGradient>
<radialGradient id="radial1" gradientUnits="userSpaceOnUse" cx="450.908936" cy="189.579361" fx="450.908936" fy="189.579361" r="21.166656" gradientTransform="matrix(-0.000000261256,0.117199,0.210958,0.000000152308,-27.589573,-11.29122)">
<stop offset="0" style="stop-color:rgb(0%,0%,0%);stop-opacity:0.313725;"/>
<stop offset="0.222222" style="stop-color:rgb(0%,0%,0%);stop-opacity:0.27451;"/>
<stop offset="1" style="stop-color:rgb(0%,0%,0%);stop-opacity:0;"/>
</radialGradient>
<radialGradient id="radial2" gradientUnits="userSpaceOnUse" cx="450.908936" cy="189.579361" fx="450.908936" fy="189.579361" r="21.166656" gradientTransform="matrix(-0.000000261256,-0.117199,0.210958,-0.000000152308,-27.589573,95.392999)">
<stop offset="0" style="stop-color:rgb(0%,0%,0%);stop-opacity:0.313725;"/>
<stop offset="0.222222" style="stop-color:rgb(0%,0%,0%);stop-opacity:0.27451;"/>
<stop offset="1" style="stop-color:rgb(0%,0%,0%);stop-opacity:0;"/>
</radialGradient>
<radialGradient id="radial3" gradientUnits="userSpaceOnUse" cx="450.908936" cy="189.579361" fx="450.908936" fy="189.579361" r="21.166656" gradientTransform="matrix(0.000000261256,0.117199,-0.210958,0.000000152308,75.219126,-11.291219)">
<stop offset="0" style="stop-color:rgb(0%,0%,0%);stop-opacity:0.313725;"/>
<stop offset="0.222222" style="stop-color:rgb(0%,0%,0%);stop-opacity:0.27451;"/>
<stop offset="1" style="stop-color:rgb(0%,0%,0%);stop-opacity:0;"/>
</radialGradient>
<linearGradient id="linear1" gradientUnits="userSpaceOnUse" x1="960" y1="495.118103" x2="960" y2="175.118134" gradientTransform="matrix(1,0,0,1,0,0)">
<stop offset="0" style="stop-color:rgb(100%,80%,50.196078%);stop-opacity:1;"/>
<stop offset="1" style="stop-color:rgb(100%,87.843137%,69.803922%);stop-opacity:1;"/>
</linearGradient>
<linearGradient id="linear2" gradientUnits="userSpaceOnUse" x1="960" y1="1455.118164" x2="960" y2="615.118103" gradientTransform="matrix(1,0,0,1,0,0)">
<stop offset="0" style="stop-color:rgb(87.843137%,87.843137%,87.843137%);stop-opacity:1;"/>
<stop offset="1" style="stop-color:rgb(93.333333%,93.333333%,93.333333%);stop-opacity:1;"/>
</linearGradient>
</defs>
<g id="surface1">
<path style=" stroke:none;fill-rule:nonzero;fill:url(#linear0);" d="M 11.90625 42.050781 L 35.722656 42.050781 L 35.722656 44.035156 L 11.90625 44.035156 Z M 11.90625 42.050781 "/>
<path style=" stroke:none;fill-rule:nonzero;fill:url(#radial0);" d="M 35.722656 42.050781 L 39.691406 42.050781 L 39.691406 40.066406 L 35.722656 40.066406 Z M 35.722656 42.050781 "/>
<path style=" stroke:none;fill-rule:nonzero;fill:url(#radial1);" d="M 11.90625 42.050781 L 7.9375 42.050781 L 7.9375 44.035156 L 11.90625 44.035156 Z M 11.90625 42.050781 "/>
<path style=" stroke:none;fill-rule:nonzero;fill:url(#radial2);" d="M 11.90625 42.050781 L 7.9375 42.050781 L 7.9375 40.066406 L 11.90625 40.066406 Z M 11.90625 42.050781 "/>
<path style=" stroke:none;fill-rule:nonzero;fill:url(#radial3);" d="M 35.722656 42.050781 L 39.691406 42.050781 L 39.691406 44.035156 L 35.722656 44.035156 Z M 35.722656 42.050781 "/>
<path style=" stroke:none;fill-rule:nonzero;fill:rgb(100%,67.058824%,25.098039%);fill-opacity:1;" d="M 9.921875 4.34375 L 37.707031 4.34375 C 38.804688 4.34375 39.691406 5.234375 39.691406 6.328125 L 39.691406 40.066406 C 39.691406 41.164062 38.804688 42.050781 37.707031 42.050781 L 9.921875 42.050781 C 8.828125 42.050781 7.9375 41.164062 7.9375 40.066406 L 7.9375 6.328125 C 7.9375 5.234375 8.828125 4.34375 9.921875 4.34375 Z M 9.921875 4.34375 "/>
<path style="fill-rule:nonzero;fill:url(#linear1);stroke-width:11.338583;stroke-linecap:round;stroke-linejoin:round;stroke:rgb(12.941177%,12.941177%,12.941177%);stroke-opacity:1;stroke-miterlimit:4;" d="M 399.961827 175.101398 C 355.714081 175.101398 319.969461 210.846018 319.969461 255.093763 L 319.969461 495.070859 L 1600.004772 495.070859 L 1600.004772 255.093763 C 1600.004772 210.846018 1564.260152 175.101398 1520.012406 175.101398 Z M 399.961827 175.101398 " transform="matrix(0.0248071,0,0,0.0248071,0,0)"/>
<path style=" stroke:none;fill-rule:nonzero;fill:rgb(0%,0%,0%);fill-opacity:0.196078;" d="M 9.921875 41.9375 C 8.824219 41.9375 7.9375 41.054688 7.9375 39.953125 L 7.9375 39.707031 C 7.9375 40.804688 8.824219 41.691406 9.921875 41.691406 L 37.707031 41.691406 C 38.804688 41.691406 39.691406 40.804688 39.691406 39.707031 L 39.691406 39.953125 C 39.691406 41.054688 38.804688 41.9375 37.707031 41.9375 Z M 9.921875 41.9375 "/>
<path style=" stroke:none;fill-rule:nonzero;fill:rgb(100%,100%,100%);fill-opacity:0.392157;" d="M 9.921875 4.457031 C 8.824219 4.457031 7.9375 5.339844 7.9375 6.441406 L 7.9375 6.6875 C 7.9375 5.589844 8.824219 4.703125 9.921875 4.703125 L 37.707031 4.703125 C 38.804688 4.703125 39.691406 5.589844 39.691406 6.6875 L 39.691406 6.441406 C 39.691406 5.339844 38.804688 4.457031 37.707031 4.457031 Z M 9.921875 4.457031 "/>
<path style=" stroke:none;fill-rule:nonzero;fill:rgb(12.941177%,12.941177%,12.941177%);fill-opacity:1;" d="M 9.921875 4.203125 C 8.746094 4.203125 7.796875 5.152344 7.796875 6.328125 L 7.796875 40.066406 C 7.796875 41.242188 8.746094 42.191406 9.921875 42.191406 L 37.707031 42.191406 C 38.882812 42.191406 39.832031 41.242188 39.832031 40.066406 L 39.832031 6.328125 C 39.832031 5.152344 38.882812 4.203125 37.707031 4.203125 Z M 9.921875 4.484375 L 37.707031 4.484375 C 38.730469 4.484375 39.550781 5.304688 39.550781 6.328125 L 39.550781 40.066406 C 39.550781 41.089844 38.730469 41.910156 37.707031 41.910156 L 9.921875 41.910156 C 8.898438 41.910156 8.078125 41.089844 8.078125 40.066406 L 8.078125 6.328125 C 8.078125 5.304688 8.898438 4.484375 9.921875 4.484375 Z M 9.921875 4.484375 "/>
<path style="fill-rule:nonzero;fill:url(#linear2);stroke-width:11.338583;stroke-linecap:round;stroke-linejoin:miter;stroke:rgb(12.941177%,12.941177%,12.941177%);stroke-opacity:1;stroke-miterlimit:4;" d="M 960.065849 615.059407 C 804.805077 615.059407 679.935105 739.929379 679.935105 895.190151 C 679.935105 1007.305435 745.283199 1103.516725 840.077301 1148.394331 L 840.077301 1175.16343 C 828.897266 1175.16343 819.921744 1183.666555 819.921744 1194.216729 L 819.921744 1195.948848 C 819.921744 1206.656487 828.897266 1215.159612 840.077301 1215.159612 L 840.077301 1275.153886 C 828.897266 1275.153886 819.921744 1283.657012 819.921744 1294.207186 L 819.921744 1296.09677 C 819.921744 1306.646944 828.897266 1315.150069 840.077301 1315.150069 L 840.077301 1375.144343 C 840.077301 1397.346948 857.870878 1415.140526 880.073484 1415.140526 L 900.071575 1415.140526 L 900.071575 1435.138617 C 900.071575 1446.161187 917.865152 1455.136708 940.067758 1455.136708 L 980.06394 1455.136708 C 1002.10908 1455.136708 1020.060123 1446.161187 1020.060123 1435.138617 L 1020.060123 1415.140526 L 1040.058214 1415.140526 C 1062.103354 1415.140526 1080.054397 1397.346948 1080.054397 1375.144343 L 1080.054397 1355.146252 C 1091.076967 1355.146252 1100.052488 1346.643126 1100.052488 1336.092952 L 1100.052488 1334.203369 C 1100.052488 1323.653195 1091.076967 1315.150069 1080.054397 1315.150069 L 1080.054397 1255.155795 C 1091.076967 1255.155795 1100.052488 1246.65267 1100.052488 1235.94503 L 1100.052488 1234.212912 C 1100.052488 1223.662738 1091.076967 1215.159612 1080.054397 1215.159612 L 1080.054397 1148.394331 C 1174.691034 1103.516725 1240.039128 1007.305435 1240.039128 895.190151 C 1240.039128 739.929379 1115.169156 615.059407 960.065849 615.059407 Z M 960.065849 735.047955 C 1048.56134 735.047955 1120.05058 806.537195 1120.05058 895.190151 C 1120.05058 983.685642 1048.56134 1055.174882 960.065849 1055.174882 C 871.412893 1055.174882 799.923653 983.685642 799.923653 895.190151 C 799.923653 806.537195 871.412893 735.047955 960.065849 735.047955 Z M 960.065849 735.047955 " transform="matrix(0.0248071,0,0,0.0248071,0,0)"/>
</g>
</svg>
